X: 414
T: Xiaoguafu shangfeng
L: 1/8
M: 2/4
K: C
ee2e/ e/ [I:setbarnb 1]| 
ed2d | 
d> c A G | 
E4 | 
A/ A/ A/ A/ d c | 
AG3 | 
G A c A | 
G4 |]

@@@ Tune index: 9288
